X:1
T:Title
L:1/8
M:4/4
I:linebreak $
K:A
V:1 treble nm="Voice"
V:1
"Bm" B3 d cBdc | BdcA"F#m" F3 A |"Bm" BdcB dcBd |"F#m" caag afec |"Bm" dcBd cBdc | BdcA"F#m" F3 E | %6
 C3 F"E" EFAB |1"A" cdec decd :|2"A" cdec"D" defg |:"A" a2 ag aece | Pa3 e"E" gabg | %11
"A" a2 ag aece |"E7" dB PB2 defg |"A" a2 ag aece | Pa3 e"E" gabg |"A" a2 ge (3fga ec |1 %16
"E7" dcBc defg :|2"E7" decd Bdcd |] %18
